64x64/mimetypes/application-vnd.comicbook+zip.svg

<svg height="64" width="64" xmlns="http://www.w3.org/2000/svg"><path d="m12.75 5c-1.524 0-2.75 1.249-2.75 2.8v50.4c0 1.55 1.226 2.8 2.75 2.8h38.5c1.522 0 2.75-1.25 2.75-2.8v-35.2l-14-4-4-14z" opacity=".2"/><path d="m12.75 4c-1.524 0-2.75 1.249-2.75 2.8v50.4c0 1.55 1.226 2.8 2.75 2.8h38.5c1.522 0 2.75-1.25 2.75-2.8v-35.2l-14-4-4-14z" fill="#ffba3a"/><path d="m54 23-18-18v15.188a2.806 2.806 0 0 0 2.813 2.812z" opacity=".2"/><path d="m54 22-18-18v15.188a2.806 2.806 0 0 0 2.813 2.812z" fill="#ffdea2"/><path d="m12.75 4c-1.524 0-2.75 1.25-2.75 2.8v1c0-1.55 1.226-2.8 2.75-2.8h23.25v-1z" fill="#f4f4f7" opacity=".2"/><path d="m27.929 30c0 4.125 0 8-2.4 8-1.085 0-2.377-.009-3.146-1.372-1.049-1.859 1.474-5.253 1.474-5.253-6.29 1.973-10.857 5.903-10.857 10.672 0 3.724 3.314 7.732 7.464 9.953 0 0-1.994-6.075.642-6.875 1.429-.23 3.302 1.344 4.108 2.75 0 0-.29-2.708 1.784-2.75s4.65 3.69 5.002 6.875c.351-3.185 2.928-6.917 5.002-6.875s1.784 2.75 1.784 2.75c.806-1.406 2.68-2.98 4.108-2.75 2.636.8.642 6.875.642 6.875 4.15-2.22 7.464-6.23 7.464-9.953 0-4.77-4.566-8.699-10.857-10.672 0 0 2.523 3.394 1.474 5.253-.77 1.362-2.06 1.372-3.147 1.372-2.399 0-2.399-3.875-2.399-8l-2.841 3h-2.46z" fill="#17191e"/></svg>

<svg xmlns="http://www.w3.org/2000/svg" width="64" height="64"><path style="opacity:.2" d="M12.75 5C11.226 5 10 6.249 10 7.8v50.4c0 1.55 1.226 2.8 2.75 2.8h38.5c1.522 0 2.75-1.25 2.75-2.8V23l-14-4-4-14z"/><path style="fill:#ffba3a" d="M12.75 4C11.226 4 10 5.249 10 6.8v50.4c0 1.55 1.226 2.8 2.75 2.8h38.5c1.522 0 2.75-1.25 2.75-2.8V22l-14-4-4-14z"/><path style="opacity:.2" d="M54 23 36 5v15.188A2.806 2.806 0 0 0 38.813 23z"/><path style="fill:#ffdea2" d="M54 22 36 4v15.188A2.806 2.806 0 0 0 38.813 22z"/><path style="opacity:.2;fill:#f4f4f7" d="M12.75 4C11.226 4 10 5.25 10 6.8v1C10 6.25 11.226 5 12.75 5H36V4H12.75z"/><path style="fill:#17191e" d="M27.929 30c0 4.125 0 8-2.4 8-1.085 0-2.377-.009-3.146-1.372-1.049-1.859 1.474-5.253 1.474-5.253C17.567 33.348 13 37.278 13 42.047c0 3.724 3.314 7.732 7.464 9.953 0 0-1.994-6.075.642-6.875 1.429-.23 3.302 1.344 4.108 2.75 0 0-.29-2.708 1.784-2.75 2.074-.042 4.65 3.69 5.002 6.875.351-3.185 2.928-6.917 5.002-6.875 2.074.042 1.784 2.75 1.784 2.75.806-1.406 2.68-2.98 4.108-2.75 2.636.8.642 6.875.642 6.875C47.686 49.78 51 45.77 51 42.047c0-4.77-4.566-8.699-10.857-10.672 0 0 2.523 3.394 1.474 5.253C40.847 37.99 39.557 38 38.47 38c-2.399 0-2.399-3.875-2.399-8l-2.841 3h-2.46z"/></svg>
